flaticon/hand-gestures/hand-gesture-2.svg

<svg xmlns="http://www.w3.org/2000/svg" width="32" height="32" viewBox="0 0 24 24">
    <path d="M 21.21875 4.40625 C 20.898438 4.007812 20.378906 3.804688 19.738281 3.804688 C 19.535156 3.804688 19.257812 3.847656 19.015625 3.964844 L 19.257812 2.644531 C 19.335938 2.082031 19.214844 1.644531 18.933594 1.320312 C 18.613281 0.960938 18.132812 0.761719 17.453125 0.761719 C 16.570312 0.761719 15.890625 1.402344 15.730469 2.523438 L 14.527344 8.933594 L 13.285156 1.722656 C 12.964844 0.28125 12.125 0 11.484375 0 C 11.003906 0 10.523438 0.160156 10.199219 0.519531 C 9.878906 0.839844 9.71875 1.203125 9.679688 1.644531 C 9.480469 1.5625 9.238281 1.523438 8.957031 1.523438 C 7.957031 1.523438 7.15625 2.324219 7.15625 3.324219 L 7.15625 3.367188 L 8.277344 11.78125 C 7.355469 10.617188 6.195312 9.253906 5.191406 8.695312 C 4.390625 8.253906 3.1875 8.535156 2.667969 9.296875 C 2.507812 9.535156 2.027344 10.457031 3.269531 11.460938 C 5.832031 13.582031 6.035156 16.027344 6.035156 16.066406 C 6.476562 19.191406 8.238281 20.632812 8.839844 21.035156 L 8.839844 22.398438 C 8.839844 23.277344 9.558594 24 10.441406 24 L 17.652344 24 C 18.535156 24 19.257812 23.277344 19.257812 22.398438 L 19.257812 20.953125 C 20.457031 19.3125 20.457031 19.113281 20.457031 15.988281 L 20.457031 15.226562 L 21.539062 5.6875 C 21.621094 5.046875 21.417969 4.648438 21.21875 4.40625 Z M 20.738281 5.527344 L 19.65625 15.144531 L 19.65625 15.988281 C 19.65625 18.921875 19.65625 19.027344 18.652344 20.394531 L 18.054688 20.394531 C 17.8125 20.394531 17.652344 20.554688 17.652344 20.792969 C 17.652344 21.035156 17.8125 21.195312 18.054688 21.195312 L 18.453125 21.195312 L 18.453125 22.398438 C 18.453125 22.839844 18.09375 23.199219 17.652344 23.199219 L 10.441406 23.199219 C 10 23.199219 9.640625 22.839844 9.640625 22.398438 L 9.640625 21.195312 L 10.441406 21.195312 C 10.683594 21.195312 10.84375 21.035156 10.84375 20.792969 C 10.84375 20.554688 10.683594 20.394531 10.441406 20.394531 L 9.332031 20.394531 C 8.902344 20.121094 7.210938 18.847656 6.796875 15.945312 C 6.796875 15.867188 6.636719 13.183594 3.75 10.859375 C 3.429688 10.578125 3.070312 10.136719 3.308594 9.777344 C 3.589844 9.375 4.351562 9.175781 4.792969 9.414062 C 5.953125 10.058594 7.515625 12.140625 8.359375 13.261719 L 8.445312 13.371094 C 8.519531 14.402344 9.210938 15.183594 10.039062 15.183594 C 10.28125 15.183594 10.441406 15.023438 10.441406 14.785156 C 10.441406 14.542969 10.28125 14.382812 10.039062 14.382812 C 9.621094 14.382812 9.277344 13.878906 9.242188 13.277344 C 9.25 13.234375 9.25 13.1875 9.238281 13.140625 L 7.957031 3.246094 C 7.957031 2.722656 8.398438 2.285156 8.957031 2.285156 C 9.679688 2.285156 9.800781 2.722656 9.839844 2.886719 C 9.839844 2.925781 9.878906 3.003906 9.878906 3.085938 L 11.242188 10.847656 C 11.234375 11.015625 11.199219 11.144531 11.164062 11.179688 C 10.960938 11.21875 10.84375 11.378906 10.84375 11.578125 C 10.84375 11.820312 11.003906 11.980469 11.242188 11.980469 C 11.394531 11.980469 11.527344 11.929688 11.644531 11.835938 C 11.757812 11.929688 11.894531 11.980469 12.042969 11.980469 C 12.285156 11.980469 12.445312 11.820312 12.445312 11.578125 C 12.445312 11.378906 12.285156 11.21875 12.125 11.179688 C 12.085938 11.140625 12.050781 11 12.042969 10.820312 C 12.050781 10.78125 12.050781 10.738281 12.042969 10.699219 L 10.800781 3.566406 L 10.761719 3.40625 C 10.722656 3.246094 10.683594 3.085938 10.640625 2.925781 L 10.441406 1.722656 C 10.441406 1.441406 10.523438 1.242188 10.722656 1.042969 C 10.921875 0.882812 11.164062 0.761719 11.441406 0.761719 C 11.761719 0.761719 12.246094 0.882812 12.445312 1.84375 L 14.046875 11.25 C 14.039062 11.414062 14.003906 11.542969 13.96875 11.578125 C 13.765625 11.621094 13.648438 11.78125 13.648438 11.980469 C 13.648438 12.21875 13.808594 12.378906 14.046875 12.378906 C 14.199219 12.378906 14.332031 12.328125 14.449219 12.238281 C 14.5625 12.328125 14.699219 12.378906 14.847656 12.378906 C 15.089844 12.378906 15.25 12.21875 15.25 11.980469 C 15.25 11.78125 15.089844 11.621094 14.929688 11.578125 C 14.894531 11.542969 14.859375 11.417969 14.851562 11.25 L 16.453125 2.644531 C 16.492188 2.402344 16.730469 1.5625 17.453125 1.5625 C 17.855469 1.5625 18.175781 1.644531 18.335938 1.84375 C 18.453125 1.964844 18.496094 2.203125 18.453125 2.484375 L 16.851562 11.898438 C 16.84375 11.949219 16.84375 11.992188 16.851562 12.035156 C 16.84375 12.210938 16.808594 12.34375 16.773438 12.378906 C 16.570312 12.421875 16.453125 12.582031 16.453125 12.78125 C 16.453125 13.023438 16.613281 13.183594 16.851562 13.183594 C 17.003906 13.183594 17.136719 13.128906 17.253906 13.039062 C 17.367188 13.128906 17.503906 13.183594 17.652344 13.183594 C 17.894531 13.183594 18.054688 13.023438 18.054688 12.78125 C 18.054688 12.582031 17.894531 12.421875 17.734375 12.378906 C 17.699219 12.34375 17.664062 12.21875 17.65625 12.050781 L 18.734375 5.648438 C 19.015625 4.566406 19.578125 4.566406 19.738281 4.566406 C 20.136719 4.566406 20.457031 4.6875 20.617188 4.886719 C 20.738281 5.046875 20.777344 5.25 20.738281 5.527344 Z M 20.738281 5.527344"/>
</svg>

<svg xmlns="http://www.w3.org/2000/svg" width="32" height="32" viewBox="0 0 24 24">
    <path d="M21.219 4.406c-.32-.398-.84-.601-1.48-.601-.204 0-.481.043-.723.16l.242-1.32c.078-.563-.043-1-.324-1.325-.32-.36-.801-.558-1.48-.558-.884 0-1.563.64-1.724 1.761l-1.203 6.41-1.242-7.21C12.965.28 12.125 0 11.485 0c-.481 0-.962.16-1.286.52-.32.32-.48.683-.52 1.125a1.903 1.903 0 0 0-.722-.122c-1 0-1.8.801-1.8 1.801v.043l1.12 8.414c-.922-1.164-2.082-2.527-3.086-3.086-.8-.441-2.003-.16-2.523.602-.16.238-.64 1.16.602 2.164 2.562 2.121 2.765 4.566 2.765 4.605.442 3.125 2.203 4.567 2.805 4.97v1.362c0 .88.719 1.602 1.601 1.602h7.211a1.61 1.61 0 0 0 1.606-1.602v-1.445c1.199-1.64 1.199-1.84 1.199-4.965v-.761l1.082-9.54c.082-.64-.121-1.039-.32-1.28zm-.48 1.121l-1.083 9.618v.843c0 2.934 0 3.04-1.004 4.407h-.597c-.242 0-.403.16-.403.398 0 .242.16.402.403.402h.398v1.203c0 .442-.36.801-.8.801H10.44c-.441 0-.8-.36-.8-.8v-1.204h.8c.243 0 .403-.16.403-.402 0-.238-.16-.398-.403-.398H9.332c-.43-.274-2.121-1.547-2.535-4.45 0-.078-.16-2.761-3.047-5.086-.32-.28-.68-.722-.441-1.082.28-.402 1.043-.601 1.484-.363 1.16.645 2.723 2.727 3.566 3.848l.086.11c.075 1.03.766 1.812 1.594 1.812.242 0 .402-.16.402-.399 0-.242-.16-.402-.402-.402-.418 0-.762-.504-.797-1.106a.325.325 0 0 0-.004-.136L7.957 3.246c0-.523.441-.96 1-.96.723 0 .844.437.883.6 0 .04.039.118.039.2l1.363 7.762c-.008.168-.043.297-.078.332-.203.039-.32.199-.32.398 0 .242.16.402.398.402.153 0 .285-.05.403-.144.113.094.25.144.398.144.242 0 .402-.16.402-.402 0-.2-.16-.36-.32-.398-.04-.04-.074-.18-.082-.36a.316.316 0 0 0 0-.12l-1.242-7.134-.04-.16c-.038-.16-.077-.32-.12-.48l-.2-1.203c0-.282.082-.48.282-.68.199-.16.441-.281.718-.281.32 0 .805.12 1.004 1.082l1.602 9.406c-.008.164-.043.293-.078.328a.392.392 0 0 0-.32.402c0 .239.16.399.398.399.152 0 .285-.05.402-.14.114.09.25.14.399.14.242 0 .402-.16.402-.399 0-.199-.16-.359-.32-.402-.035-.035-.07-.16-.078-.328l1.601-8.605c.04-.243.277-1.083 1-1.083.402 0 .723.083.883.282.117.12.16.36.117.64l-1.601 9.414a.401.401 0 0 0 0 .137c-.008.176-.043.309-.079.344a.392.392 0 0 0-.32.402c0 .242.16.403.399.403a.65.65 0 0 0 .402-.145c.113.09.25.145.398.145.243 0 .403-.16.403-.403 0-.199-.16-.36-.32-.402-.036-.035-.07-.16-.079-.328l1.078-6.403c.282-1.082.844-1.082 1.004-1.082.399 0 .719.122.88.32.12.16.16.364.12.641zm0 0"/>
</svg>
